X:1
T:Budapest, 87.87 D
T:Budapest, 87.87 D
T:Vernon Bryan Crowther-Beynon, 1916
T:Public Domain Courtesy of the Cyber Hymnal™
C:Vernon Bryan Crowther-Beynon, 1916
Z:Public Domain
Z:Courtesy of the Cyber Hymnal™
%%score 1 ( 2 3 ) ( 4 5 )
L:1/8
Q:1/4=85
M:6/8
K:D
V:1 treble 
V:2 treble 
V:3 treble 
V:4 bass 
V:5 bass 
V:1
 (F^E)F A2 A | G2 F G2 E | A2 A (Bc)d | c2 B A3 | A2 A (AB)c | d2 e d2 c | B2 B (AF)D | %7
 E2 F E2 ^E | (F^E)F A2 A | G2 F G2 E | A2 A B2 B | (cd)e d3 | d2 d c2 B | B2 A F2 G | A2 B (AB)d | %15
 d2 c d3 |] %16
V:2
 (F^E)[DF] [DA]2 [DA] | [CG]2 [^B,F] [CG]2 [CE] | [DA]2 A (Bc)[=Gd] | [Gc]2 [GB] [GA]3 | %4
 [FA]2 [FA] (AB)[Ac] | [^Gd]2 [Ge] [=Gd]2 [Gc] | [EB]2 [CB] (AF)D | [DE]2 [DF] E2 ^E | %8
 (F^E)[DF] [DA]2 [DA] | [CG]2 [^B,F] [CG]2 [CE] | [DA]2 A [AB]2 [GB] | (cd)[Ge] [Fd]3 | %12
 [Gd]2 [Gd] [^Ec]2 [EB] | [FB]2 [FA] F2 [DG] | [DA]2 [DB] (AB)[Fd] | [Gd]2 [Gc] [Fd]3 |] %16
V:3
 D2 x4 | x6 | x2 A ^G2 x | x6 | x3 A2 x | x6 | x3 D2 D | x3 C3 | D2 x4 | x6 | x2 A x3 | G2 x4 | %12
 x6 | x3 F2 x | x3 D2 x | x6 |] %16
V:4
 [D,A,]2 [D,A,] [F,A,]2 [F,A,] | [E,A,]2 [^D,A,] [E,A,]2 [G,A,] | [F,D]2 [F,D] (DC)[=E,B,] | %3
 [E,A,]2 [E,B,] [A,C]3 | D2 D [CE]2 [CE] | [B,E]2 [B,E] [A,E]2 [A,E] | %6
 [G,C]2 [G,C] [F,A,]2 [F,A,] | [E,^G,]2 [E,G,] [A,,A,]3 | [D,A,]2 [D,A,] [F,A,]2 [F,A,] | %9
 [E,A,]2 [^D,A,] [E,A,]2 [G,A,] | [F,A,]2 [F,D] [G,D]2 [E,E] | (A,B,)[A,C] [B,D]3 | %12
 [G,B,]2 [G,B,] (B,C)[=G,D] | [A,D]2 [A,D] [B,D]2 [E,B,] | [A,,F,]2 [A,,G,] [A,,F,]2 [A,,A,] | %15
 [A,,A,]2 [A,,A,] [D,A,]3 |] %16
V:5
 x6 | x6 | x3 ^E,2 x | x6 | D2 D x3 | x6 | x6 | x6 | x6 | x6 | x6 | A,2 x4 | x3 ^G,2 x | x6 | x6 | %15
 x6 |] %16

